svg/fluentui-system-icons/ic_fluent_document_js_16_filled.svg

<svg width="16" height="16" viewBox="0 0 16 16" fill="none" xmlns="http://www.w3.org/2000/svg">
<path d="M10.5 5H13.75L10 1.25V4.5C10 4.776 10.224 5 10.5 5ZM10.5 6C9.672 6 9 5.328 9 4.5V1H5.5C4.672 1 4 1.672 4 2.5V9.091C4.208 9.165 4.4 9.279 4.561 9.439C4.636 9.514 4.701 9.596 4.757 9.683C4.77304 9.66754 4.78874 9.65183 4.8044 9.63616C4.84243 9.5981 4.88021 9.56029 4.922 9.527C5.346 9.19 5.878 9.003 6.421 9H6.573C7.212 9 7.838 9.26 8.289 9.712C8.741 10.163 9 10.788 9 11.427C9.004 11.766 8.891 12.098 8.68 12.37C8.713 12.427 8.743 12.485 8.771 12.545C9.001 13.037 9.06 13.601 8.935 14.13C8.861 14.447 8.716 14.74 8.525 15H12.5C13.328 15 14 14.328 14 13.5V6H10.5ZM6.57301 15H6.42701C6.04901 15 5.68601 14.849 5.41801 14.582C5.15001 14.314 5.00001 13.952 5.00001 13.573C4.99901 13.436 5.05001 13.305 5.14301 13.205C5.23601 13.105 5.36401 13.045 5.50001 13.036C5.56401 13.032 5.62701 13.041 5.68801 13.063C5.74801 13.084 5.80301 13.118 5.85001 13.161C5.89701 13.204 5.93401 13.257 5.96001 13.315C5.98601 13.373 6.00001 13.436 6.00001 13.5C5.99301 13.561 5.99901 13.623 6.01701 13.682C6.03501 13.741 6.06501 13.796 6.10501 13.843C6.14501 13.89 6.19401 13.928 6.25001 13.955C6.30501 13.982 6.36601 13.997 6.42801 14H6.57401C6.68701 14 6.79601 13.955 6.87601 13.875C6.95601 13.795 7.00101 13.686 7.00101 13.573C7.00101 13.494 6.98001 13.416 6.93801 13.349C6.89601 13.282 6.83701 13.227 6.76601 13.192L5.79001 12.7C5.50401 12.555 5.27601 12.319 5.14101 12.028C5.00601 11.738 4.97301 11.41 5.04601 11.099C5.12001 10.787 5.29601 10.51 5.54701 10.31C5.79801 10.111 6.10801 10.001 6.42801 10H6.57401C6.95201 10 7.31501 10.151 7.58301 10.418C7.85101 10.686 8.00101 11.048 8.00101 11.427C8.00202 11.564 7.95101 11.695 7.85801 11.795C7.76501 11.895 7.63701 11.955 7.50101 11.964C7.43701 11.968 7.37401 11.959 7.31301 11.937C7.25301 11.916 7.19801 11.882 7.15101 11.839C7.10401 11.796 7.06701 11.743 7.04101 11.685C7.01501 11.627 7.00101 11.564 7.00101 11.5V11.427C7.00101 11.314 6.95601 11.205 6.87601 11.125C6.79601 11.045 6.68701 11 6.57401 11H6.42801C6.31501 11 6.20601 11.045 6.12601 11.125C6.04601 11.205 6.00101 11.314 6.00101 11.427C6.00101 11.506 6.02201 11.584 6.06401 11.651C6.10601 11.718 6.16501 11.773 6.23601 11.808L7.21201 12.297C7.49901 12.441 7.73001 12.677 7.86601 12.969C8.00202 13.26 8.03601 13.589 7.96201 13.901C7.88801 14.214 7.71101 14.492 7.45901 14.692C7.20701 14.891 6.89401 15 6.57301 15ZM1.439 14.561C1.721 14.842 2.102 15 2.5 15C2.898 15 3.28 14.842 3.561 14.561C3.842 14.279 4 13.898 4 13.5V10.5C4 10.367 3.948 10.24 3.854 10.146C3.76 10.053 3.633 10 3.5 10C3.367 10 3.24 10.052 3.146 10.146C3.053 10.24 3 10.367 3 10.5V13.5C3 13.633 2.948 13.76 2.854 13.854C2.76 13.947 2.633 14 2.5 14C2.367 14 2.24 13.948 2.146 13.854C2.053 13.76 2 13.633 2 13.5V13C2 12.867 1.948 12.74 1.854 12.646C1.76 12.553 1.633 12.5 1.5 12.5C1.367 12.5 1.24 12.552 1.146 12.646C1.053 12.74 1 12.867 1 13V13.5C1 13.898 1.158 14.28 1.439 14.561Z" fill="#212121"/>
</svg>

<svg xmlns="http://www.w3.org/2000/svg" width="16" height="16"><path d="M10.5 5h3.25L10 1.25V4.5a.5.5 0 0 0 .5.5Zm0 1A1.5 1.5 0 0 1 9 4.5V1H5.5A1.5 1.5 0 0 0 4 2.5v6.591c.208.074.4.188.561.348.075.075.14.157.196.244l.047-.047c.038-.038.076-.076.118-.109A2.44 2.44 0 0 1 6.421 9h.152c.639 0 1.265.26 1.716.712.452.451.711 1.076.711 1.715a1.51 1.51 0 0 1-.32.943 2.438 2.438 0 0 1 .255 1.76c-.074.317-.219.61-.41.87H12.5a1.5 1.5 0 0 0 1.5-1.5V6h-3.5Zm-3.927 9h-.146A1.431 1.431 0 0 1 5 13.573a.533.533 0 0 1 .5-.537.465.465 0 0 1 .35.125.467.467 0 0 1 .15.339.449.449 0 0 0 .428.5h.146a.428.428 0 0 0 .192-.808L5.79 12.7a1.424 1.424 0 0 1-.744-1.601A1.43 1.43 0 0 1 6.428 10h.146a1.431 1.431 0 0 1 1.427 1.427.533.533 0 0 1-.5.537.465.465 0 0 1-.35-.125.467.467 0 0 1-.15-.339v-.073A.428.428 0 0 0 6.574 11h-.146a.428.428 0 0 0-.192.808l.976.489A1.426 1.426 0 0 1 6.573 15Zm-5.134-.439a1.503 1.503 0 0 0 2.122 0c.281-.282.439-.663.439-1.061v-3a.5.5 0 1 0-1 0v3a.5.5 0 1 1-1 0V13a.5.5 0 1 0-1 0v.5c0 .398.158.78.439 1.061Z"/></svg>
